src/actions/32/media-eject.svg

<?xml version="1.0" encoding="UTF-8"?>
<svg viewBox="0 0 32 32" xmlns="http://www.w3.org/2000/svg">
 <defs id="defs3051">
  <style id="current-color-scheme" type="text/css">.ColorScheme-Text {
        color:#363636;
      }</style>
 </defs>
 <path id="path23" class="ColorScheme-Text" d="m16 6-12 14h24l-12-14zm-12 18v2h24v-2h-24z" fill="currentColor"/>
</svg>

<svg xmlns="http://www.w3.org/2000/svg" viewBox="0 0 32 32">
  <defs
     id="defs3051">
    <style
       type="text/css"
       id="current-color-scheme">
      .ColorScheme-Text {
        color:#363636;
      }
      </style>
  </defs>
  <path
     style="fill:currentColor;fill-opacity:1;stroke:none" 
     d="M 16 6 L 4 20 L 28 20 L 16 6 z M 4 24 L 4 26 L 28 26 L 28 24 L 4 24 z "
     id="path23" 
     class="ColorScheme-Text"
     />
</svg>
